X: 10852
T: LAYBOURN McDONALD'S STRATHSPEY
C: Composed by Laybourn
R: strathspey
B: K\"ohler's Violin Repository, v.1, 1885 p.85 #2
F: http://www.archive.org/details/klersviolinrepos01edin
Z: 2012 John Chambers <jc:trillian.mit.edu>
M: C|
L: 1/8
K: E
|: v\
[e2e2] (d<g) f<b {agf}g2 | (a>g)f>e (3dfb (3agf |\
[e2e2] (d<g) f<b {agf}g2 | (a>f)b>f (g<e) [e2B2] :|
|: v\
(e>ed>e) (c>eB>e) | (^A>e=A>e) (c>f{gfe}f2) |\
(e>ed>e) (c>eB>e) | (c>fd>b) (g<e "_Segue Reel."[e2B2]) :|

%%sep 2 1 500

